!!!SOCIAL_FUNCTION:	songs received from animals
!!!PDT:	1918

Specific Region: Dakotas, Minnesota, Montana, Nebraska
!!!REG: Dakotas and Montana
!!!LING_GROUP: Siouan
!!!LANG: Tone
!!!OTL@ENG: Owls Hooting
!!!ONM: No. 47
**kern
*Imale
*clefF4
*k[f#c#g#d#a#]
*M2/4
*MM92
16e
=1
4e
8e
8B
=2
4B
8B
(16c
16B)
=3
4B
8A#
8G#
=4
[4G#
8G#]
(16c
16B)
=5
4B
8A#
8G#
=6
4G#
8E
8G#
=7
4G#
8G#
8E
=8
[4E
8E]
(16A#
16G#)
=9
4G#
8A#
8G#
=10
4G#
8.E
16G#
=11
4G#
8A#
8G#
=12
[4G#
8.G#]
16G#
=13
8d#
8c#
8c#
8A#
=14
4B
8A#
8B
=15
4B
8A#
8G#
=16
[4G#
8G#]
(16c
16B)
=17
4B
8A#
8G#
=18
4G#
8.E
16G#
=19
4G#
8G#
8E
=20
[4E
8E]
(16A#
16G#)
=21
4G#
8A#
8G#
=22
4G#
8.E
16G#
=23
4G#
8A#
8G#
=24
2G#
==
*-
!!!CNT: Native American -- Sioux
!!!MRD: 1911/07//-1914///
!!!OCL: Frances Densmore
!!!YOR1: Teton Sioux Music, Bulletin 61,
!!!YOR2: Bureau of American Ethnology, Smithsonian Institution
!!!PPR: Government Printing Office
!!!PPP: Washington, D.C.
!!!PDT: 1918///
!!!ENC: Craig Stuart Sapp
!!!END: 2002/03/25/
!!!EEV: 2002/03/31/
!!!AGN: Song of Personal Dreams/Song Received from Animals
!!!MPN@@SIO: Tatang'ka-ohi'tika
!!!MPN@ENG: Brave Buffalo
!!!TXO: Teton Sioux
!!!MLC: Standing Rock Reservation, South Dakota, United States of America
!!!ARL: 45.9/-100.7#
!!!catalog: Catalogue No. 607
!!!PPG: 180
!!!EFL: 47/245
!!!VTS: 1179447740
